X:444
T:Lad o' Byrne's
T:Cottage in the Grove, The
D:Arty McGlynn & Nollaig Casey: Lead the Knave
N:Mistakenly called "Cottage.." on the CD
Z:Nigel Gatherer
M:4/4
L:1/8
K:G
D | D>G G/G/G DGBG | (3ABc BG AGEG | DGGF  GABd  | (3efg dg edge |
    dB  B2    GBdB | cE    E2 GEDB,| DEGA  B2 eB | dBAc     BGG :|
c | Bd  d/d/d d2ef | g2    bg abge | dB B2 GBdB  | cE E2    GEDc |
    Bd  d/d/d d2ef | g2    bg abge | DEGA  B2 eB | dBAc     BGG :|
<end>
<start>
